X: 1
T: da Delting Bridal March
O: trad Shetland
R: jig, march
Z: 2014 John Chambers <jc:trillian.mit.edu>
S: PDF image from Lance Ramshaw 2014-3
M: 6/8
L: 1/8
K: G
z |\
G2G G2A | B2d B>AG | A2A A2G | A2c B2A |\
G>GG G2A | B2d B>AG | A>AA B>AG | E4 z :|
|: d |\
e2e e2d | e2g d>BG | G>GG G2A | B2A B>cd |\
e2e e2d | e2g d>BG | A>AA B>AG | E4 z :|
